static/logos/metamask-frame-color.svg

<svg width="100" height="20" viewBox="0 0 100 20" fill="none" xmlns="http://www.w3.org/2000/svg">
<path d="M87.944 9.67431C87.4266 9.3371 86.8626 9.09291 86.3278 8.79059C85.9789 8.59873 85.6068 8.42431 85.3045 8.17431C84.7929 7.7557 84.8975 6.92431 85.4324 6.56384C86.2057 6.05221 87.4789 6.3371 87.6185 7.38361C87.6185 7.40687 87.6417 7.42431 87.665 7.42431H88.8278C88.8568 7.42431 88.8801 7.40105 88.8685 7.36617C88.858 7.03698 88.7772 6.71384 88.6307 6.4189C88.4842 6.1239 88.2754 5.86402 88.0196 5.65684C87.5464 5.29193 86.9661 5.09366 86.3685 5.0929C83.2987 5.0929 83.0138 8.34291 84.6708 9.36617C84.8626 9.48245 86.4847 10.2964 87.0545 10.6511C87.6359 11.0057 87.8103 11.6569 87.5661 12.1627C87.3336 12.6336 86.7522 12.9592 86.1592 12.9185C85.5196 12.8836 85.0196 12.5348 84.8452 11.9941C84.8161 11.8952 84.7987 11.7034 84.7987 11.6278C84.7975 11.6159 84.7923 11.6048 84.7836 11.5963C84.7754 11.5879 84.7644 11.5825 84.7522 11.5813H83.4906C83.4731 11.5813 83.4499 11.6045 83.4499 11.6278C83.4499 12.5348 83.6766 13.0406 84.2929 13.4999C84.8743 13.9359 85.5138 14.122 86.165 14.122C87.8917 14.122 88.7812 13.1452 88.9557 12.1394C89.1185 11.1511 88.8278 10.2615 87.944 9.67431ZM33.1766 5.2615H32.0022C31.9935 5.26256 31.9853 5.26578 31.9782 5.27085C31.971 5.27593 31.9653 5.28271 31.9615 5.29057L30.9266 8.69756C30.9266 8.70989 30.9217 8.72169 30.913 8.73041C30.9043 8.73913 30.8924 8.74408 30.8801 8.74408C30.8678 8.74408 30.856 8.73913 30.8472 8.73041C30.8385 8.72169 30.8336 8.70989 30.8336 8.69756L29.7987 5.29057C29.7929 5.26731 29.7754 5.2615 29.7522 5.2615H27.8278C27.8045 5.2615 27.7812 5.28476 27.7812 5.3022V13.9999C27.7812 14.0231 27.8045 14.0464 27.8278 14.0464H29.0894C29.1126 14.0464 29.1359 14.0231 29.1359 13.9999V7.38361C29.1359 7.33128 29.2115 7.32547 29.2231 7.37198L30.2696 10.8022L30.3452 11.0348C30.3452 11.0638 30.3626 11.0697 30.3859 11.0697H31.3568C31.3801 11.0697 31.3917 11.0522 31.3975 11.0406L31.4731 10.7964L32.5196 7.36617C32.5313 7.31966 32.6068 7.33128 32.6068 7.38361V13.9941C32.6068 14.0173 32.6301 14.0406 32.6533 14.0406H33.915C33.9382 14.0406 33.9615 14.0173 33.9615 13.9941V5.3022C33.9615 5.28476 33.9382 5.2615 33.915 5.2615H33.1766ZM68.6301 5.2615C68.6202 5.26156 68.6109 5.26432 68.6028 5.26945C68.5946 5.27458 68.5876 5.2819 68.5836 5.29057L67.5487 8.69756C67.5487 8.70989 67.544 8.72169 67.5353 8.73041C67.5266 8.73913 67.5144 8.74408 67.5022 8.74408C67.49 8.74408 67.4778 8.73913 67.469 8.73041C67.4603 8.72169 67.4557 8.70989 67.4557 8.69756L66.4208 5.29057C66.4208 5.26731 66.4033 5.2615 66.3801 5.2615H64.4615C64.4382 5.2615 64.415 5.28476 64.415 5.3022V13.9999C64.415 14.0231 64.4382 14.0464 64.4615 14.0464H65.7231C65.7406 14.0464 65.7638 14.0231 65.7638 13.9999V7.38361C65.7638 7.33128 65.8394 7.32547 65.8568 7.37198L66.9033 10.8022L66.9731 11.0348C66.9847 11.0638 66.9964 11.0697 67.0196 11.0697H67.9847C67.994 11.069 68.0033 11.066 68.0115 11.0609C68.0196 11.0559 68.0266 11.0488 68.0313 11.0406L68.1068 10.7964L69.1533 7.36617C69.165 7.31966 69.2405 7.33128 69.2405 7.38361V13.9941C69.2405 14.0173 69.2638 14.0406 69.2871 14.0406H70.5487C70.5719 14.0406 70.5952 14.0173 70.5952 13.9941V5.3022C70.5952 5.28476 70.5719 5.2615 70.5487 5.2615H68.6301ZM52.3568 5.2615H46.3975C46.3801 5.2615 46.3568 5.28476 46.3568 5.3022V6.39524C46.3568 6.41849 46.3801 6.44175 46.3975 6.44175H48.7057V13.9999C48.7057 14.029 48.7289 14.0522 48.7464 14.0522H50.008C50.0313 14.0522 50.0545 14.029 50.0545 14.0057V6.43594H52.3568C52.3801 6.43594 52.4033 6.41268 52.4033 6.38942V5.3022C52.4033 5.28476 52.3917 5.2615 52.3568 5.2615ZM59.7987 14.0464H60.9499C60.9789 14.0464 61.0022 14.0115 60.9906 13.9883L58.6185 5.2615C58.6185 5.23824 58.601 5.22662 58.5778 5.22662H56.9208C56.9115 5.22822 56.9028 5.23231 56.8957 5.23845C56.8885 5.24459 56.8831 5.25255 56.8801 5.2615L54.508 13.9824C54.4964 14.0115 54.5196 14.0406 54.5487 14.0406H55.6999C55.7231 14.0406 55.7347 14.029 55.7464 14.0115L56.4324 11.4766C56.4382 11.4534 56.4557 11.4476 56.4789 11.4476H59.0138C59.0371 11.4476 59.0545 11.4592 59.0603 11.4766L59.7464 14.0115C59.758 14.029 59.7812 14.0464 59.7929 14.0464H59.7987ZM56.7871 10.2034L57.7057 6.80221C57.7057 6.78983 57.7106 6.77803 57.7193 6.76931C57.7281 6.76059 57.7399 6.7557 57.7522 6.7557C57.7645 6.7557 57.7764 6.76059 57.7851 6.76931C57.7938 6.77803 57.7987 6.78983 57.7987 6.80221L58.7173 10.2034C58.7289 10.2324 58.7057 10.2615 58.6766 10.2615H56.8336C56.7987 10.2615 56.7754 10.2324 56.7871 10.2034ZM79.3743 14.0464H80.5254C80.5545 14.0464 80.5778 14.0115 80.5719 13.9883L78.1999 5.25569C78.1882 5.23243 78.1766 5.2208 78.1533 5.2208H76.508C76.4975 5.22136 76.4876 5.22498 76.4795 5.23119C76.4714 5.2374 76.465 5.24592 76.4615 5.25569L74.0894 13.9766C74.0836 14.0057 74.1068 14.0348 74.1359 14.0348H75.2812C75.3045 14.0348 75.3219 14.0231 75.3278 14.0057L76.0138 11.4708C76.0254 11.4476 76.0371 11.4417 76.0603 11.4417H78.601C78.6185 11.4417 78.6359 11.4534 78.6417 11.4708L79.3336 14.0057C79.3336 14.0231 79.3568 14.0406 79.3743 14.0406V14.0464ZM76.3626 10.2034L77.2871 6.80221C77.2905 6.79332 77.2964 6.78564 77.3039 6.78018C77.3121 6.77477 77.3214 6.77187 77.3307 6.77187C77.34 6.77187 77.3493 6.77477 77.3574 6.78018C77.365 6.78564 77.3708 6.79332 77.3743 6.80221L78.2987 10.2034C78.2987 10.2324 78.2812 10.2615 78.2522 10.2615H76.4092C76.3801 10.2615 76.351 10.2324 76.3626 10.2034ZM39.0836 12.7557V10.058C39.0836 10.0348 39.101 10.0115 39.1243 10.0115H42.4847C42.508 10.0115 42.5313 9.98826 42.5313 9.97082V8.88361C42.53 8.87169 42.5247 8.86059 42.5162 8.8521C42.5078 8.84367 42.4967 8.83832 42.4847 8.8371H39.1301C39.1068 8.8371 39.0894 8.81384 39.0894 8.79059V6.48826C39.0894 6.46501 39.1068 6.44175 39.1301 6.44175H42.9557C42.9789 6.44175 43.0022 6.41849 43.0022 6.39524V5.31383C43.001 5.30192 42.9956 5.29081 42.9872 5.28234C42.9787 5.27388 42.9676 5.26858 42.9557 5.26731H37.7813C37.7694 5.26858 37.7582 5.27388 37.7498 5.28234C37.7413 5.29081 37.736 5.30192 37.7347 5.31383V13.9999C37.7347 14.0231 37.758 14.0464 37.7813 14.0464H43.1126C43.1359 14.0464 43.1592 14.0231 43.1592 13.9999V12.8487C43.1579 12.8368 43.1526 12.8257 43.1442 12.8172C43.1357 12.8088 43.1246 12.8034 43.1126 12.8022H39.1243C39.101 12.7964 39.0894 12.779 39.0894 12.7499L39.0836 12.7557ZM99.4673 13.9708L95.1068 9.47082C95.1004 9.46256 95.0964 9.45227 95.0964 9.44175C95.0964 9.43117 95.1004 9.42094 95.1068 9.41268L99.0312 5.34289C99.0411 5.33827 99.0493 5.32985 99.0528 5.31949C99.0568 5.30913 99.0563 5.29768 99.0516 5.28766C99.0469 5.27764 99.0388 5.26986 99.0283 5.26605C99.0179 5.26223 99.0063 5.26269 98.9964 5.26731H97.3917C97.3743 5.26731 97.3685 5.27313 97.3626 5.28476L94.0312 8.73245C94.0249 8.73768 94.0173 8.74111 94.0092 8.74245C94.001 8.74378 93.9929 8.74291 93.9847 8.73995C93.9772 8.73698 93.9708 8.73204 93.9656 8.72559C93.9603 8.71919 93.9568 8.71152 93.9557 8.70338V5.31383C93.9545 5.30192 93.9493 5.29081 93.9406 5.28234C93.9324 5.27388 93.9214 5.26858 93.9092 5.26731H92.6475C92.6359 5.26858 92.6243 5.27388 92.6161 5.28234C92.6074 5.29081 92.6022 5.30192 92.601 5.31383V14.0057C92.601 14.029 92.6243 14.0522 92.6475 14.0522H93.9092C93.9324 14.0522 93.9557 14.029 93.9557 14.0057V10.1801C93.9557 10.1394 94.008 10.122 94.0312 10.1511L97.8103 14.0348C97.8167 14.0424 97.8243 14.0484 97.8336 14.0522H99.444C99.4731 14.0464 99.5022 13.9941 99.4673 13.9708Z" fill="#161616"/>
<path d="M19.163 0.58139L11.5234 6.23255L12.9479 2.90116L19.163 0.58139Z" fill="#E17726" stroke="#E17726" stroke-width="0.25" stroke-linecap="round" stroke-linejoin="round"/>
<path d="M1.55033 0.58139L9.12008 6.27906L7.76543 2.90697L1.55033 0.58139ZM16.4166 13.6802L14.3817 16.7849L18.7364 17.9826L19.9805 13.75L16.4166 13.6802ZM0.742188 13.75L1.98056 17.9826L6.32357 16.7849L4.30033 13.6802L0.742188 13.75Z" fill="#E27625" stroke="#E27625" stroke-width="0.25" stroke-linecap="round" stroke-linejoin="round"/>
<path d="M6.0843 8.43599L4.875 10.2616L9.17732 10.4592L9.03779 5.82552L6.0843 8.4418V8.43599ZM14.6192 8.4418L11.6192 5.7674L11.5203 10.4592L15.8227 10.2616L14.6192 8.4418ZM6.31685 16.7848L8.92732 15.529L6.68313 13.7848L6.31685 16.7848ZM11.782 15.5232L14.375 16.7848L14.0262 13.779L11.782 15.5232Z" fill="#E27625" stroke="#E27625" stroke-width="0.25" stroke-linecap="round" stroke-linejoin="round"/>
<path d="M14.3785 16.7849L11.7854 15.5291L11.9947 17.2151L11.9715 17.9302L14.3785 16.7849ZM6.32031 16.7849L8.73892 17.9302L8.72148 17.2151L8.93078 15.5291L6.32031 16.7849Z" fill="#D5BFB2" stroke="#D5BFB2" stroke-width="0.25" stroke-linecap="round" stroke-linejoin="round"/>
<path d="M8.77616 12.6629L6.625 12.035L8.14826 11.3373L8.78198 12.6629H8.77616ZM11.9215 12.6629L12.561 11.3315L14.0901 12.0292L11.9215 12.6687V12.6629Z" fill="#233447" stroke="#233447" stroke-width="0.25" stroke-linecap="round" stroke-linejoin="round"/>
<path d="M6.32013 16.7848L6.69803 13.6802L4.29688 13.7499L6.32013 16.7848ZM14.012 13.6802L14.3783 16.7848L16.4131 13.7499L14.012 13.6802ZM15.8318 10.2616L11.5294 10.4592L11.9248 12.6685L12.5643 11.3313L14.0934 12.029L15.8318 10.2616ZM6.62826 12.0348L8.15152 11.3371L8.78524 12.6627L9.1864 10.4534L4.88408 10.2616L6.62826 12.0348Z" fill="#CC6228" stroke="#CC6228" stroke-width="0.25" stroke-linecap="round" stroke-linejoin="round"/>
<path d="M4.88281 10.2616L6.68513 13.779L6.62699 12.0348L4.88281 10.2616ZM14.0921 12.0348L14.0223 13.779L15.8247 10.2616L14.0921 12.0348ZM9.18513 10.4592L8.77815 12.6685L9.28978 15.2732L9.40606 11.8371L9.18513 10.4592ZM11.5223 10.4592L11.313 11.8313L11.4177 15.2732L11.9235 12.6627L11.5223 10.4534V10.4592Z" fill="#E27525" stroke="#E27525" stroke-width="0.25" stroke-linecap="round" stroke-linejoin="round"/>
<path d="M11.9273 12.6629L11.4215 15.2734L11.7878 15.5292L14.0262 13.785L14.0959 12.035L11.9273 12.6629ZM6.63081 12.035L6.68895 13.7792L8.93314 15.5234L9.2936 15.2734L8.78779 12.6629L6.625 12.035H6.63081Z" fill="#F5841F" stroke="#F5841F" stroke-width="0.25" stroke-linecap="round" stroke-linejoin="round"/>
<path d="M11.9773 17.9303L11.9947 17.2152L11.7971 17.0524H8.91334L8.72148 17.2152L8.73892 17.9303L6.32031 16.7849L7.16915 17.4826L8.88427 18.6629H11.8203L13.5412 17.4768L14.3785 16.7849L11.9715 17.9303H11.9773Z" fill="#C0AC9D" stroke="#C0AC9D" stroke-width="0.25" stroke-linecap="round" stroke-linejoin="round"/>
<path d="M11.7827 15.5233L11.4164 15.2733H9.28852L8.92805 15.5291L8.71875 17.2151L8.91061 17.0523H11.7943L11.992 17.2151L11.7827 15.5291V15.5233Z" fill="#161616" stroke="#161616" stroke-width="0.25" stroke-linecap="round" stroke-linejoin="round"/>
<path d="M19.4851 6.59883L20.1246 3.48837L19.1595 0.58139L11.7758 6.04651L14.6188 8.43604L18.6304 9.60465L19.5142 8.57558L19.1304 8.29651L19.7409 7.73837L19.2758 7.3779L19.8863 6.91279L19.4793 6.59883H19.4851ZM0.578125 3.48255L1.22929 6.59883L0.810683 6.90697L1.43278 7.37209L0.96766 7.73837L1.57231 8.29651L1.18859 8.57558L2.07231 9.60465L6.08394 8.44186L8.92696 6.04069L1.54324 0.58139L0.578125 3.48255Z" fill="#763E1A" stroke="#763E1A" stroke-width="0.25" stroke-linecap="round" stroke-linejoin="round"/>
<path d="M18.6375 9.60478L14.6259 8.44199L15.8352 10.2618L14.0329 13.7792L16.4166 13.7501H19.9805L18.6375 9.60478ZM6.09101 8.43617L2.0794 9.60478L0.742188 13.7501H4.30614L6.68985 13.7792L4.88754 10.2618L6.09683 8.43617H6.09101ZM11.5271 10.4594L11.7887 6.04082L12.9515 2.90131H7.76543L8.92822 6.04082L9.18985 10.4594L9.28869 11.8431V15.2734H11.4224L11.434 11.8431L11.5271 10.4594Z" fill="#F5841F" stroke="#F5841F" stroke-width="0.25" stroke-linecap="round" stroke-linejoin="round"/>
</svg>

<svg xmlns="http://www.w3.org/2000/svg" width="320" height="64" fill="none" viewBox="0 0 100 20"><path fill="#161616" d="M87.944 9.674c-.517-.337-1.081-.581-1.616-.883-.35-.192-.721-.367-1.023-.617-.512-.418-.408-1.25.127-1.61.774-.512 2.047-.227 2.186.82 0 .023.024.04.047.04h1.163c.029 0 .052-.023.04-.058a2.293 2.293 0 0 0-.848-1.71 2.71 2.71 0 0 0-1.651-.563c-3.07 0-3.355 3.25-1.698 4.273.192.116 1.814.93 2.383 1.285.582.355.756 1.006.512 1.512-.232.47-.814.796-1.407.755-.64-.034-1.14-.383-1.314-.924a1.752 1.752 0 0 1-.046-.366.05.05 0 0 0-.015-.032.05.05 0 0 0-.032-.015h-1.261c-.018 0-.041.024-.041.047 0 .907.227 1.413.843 1.872.581.436 1.22.622 1.872.622 1.727 0 2.616-.977 2.79-1.983.163-.988-.127-1.877-1.011-2.465ZM33.177 5.262h-1.175a.052.052 0 0 0-.04.029l-1.035 3.407a.047.047 0 0 1-.093 0L29.799 5.29c-.006-.024-.024-.03-.047-.03h-1.924c-.023 0-.047.024-.047.041V14c0 .023.024.046.047.046h1.261a.05.05 0 0 0 .047-.046V7.384c0-.053.076-.059.087-.012l1.047 3.43.075.233c0 .029.018.035.04.035h.972c.023 0 .035-.018.04-.03l.076-.244 1.047-3.43c.011-.046.087-.035.087.018v6.61a.05.05 0 0 0 .046.047h1.262a.05.05 0 0 0 .047-.047V5.302c0-.017-.024-.04-.047-.04h-.738Zm35.453 0c-.01 0-.02.002-.027.007a.05.05 0 0 0-.02.022L67.55 8.698a.046.046 0 0 1-.047.046.046.046 0 0 1-.047-.047l-1.034-3.406c0-.024-.018-.03-.04-.03h-1.92c-.023 0-.046.024-.046.041V14a.05.05 0 0 0 .046.046h1.262c.018 0 .04-.023.04-.046V7.384c0-.053.076-.059.094-.012l1.046 3.43.07.233c.012.029.023.035.047.035h.965a.06.06 0 0 0 .046-.03l.076-.244 1.046-3.43c.012-.046.087-.035.087.018v6.61c0 .023.024.047.047.047h1.262a.05.05 0 0 0 .046-.047V5.302c0-.017-.023-.04-.046-.04H68.63Zm-16.273 0h-5.96c-.017 0-.04.023-.04.04v1.093c0 .023.023.047.04.047h2.309V14c0 .029.023.052.04.052h1.262a.05.05 0 0 0 .046-.046v-7.57h2.303a.05.05 0 0 0 .046-.047V5.302c0-.017-.011-.04-.046-.04Zm7.442 8.784h1.15c.03 0 .053-.034.042-.058l-2.373-8.726c0-.024-.017-.035-.04-.035H56.92a.052.052 0 0 0-.04.034l-2.373 8.721c-.012.03.012.059.04.059H55.7c.023 0 .035-.012.046-.03l.686-2.534c.006-.024.024-.03.047-.03h2.535c.023 0 .04.012.046.03l.686 2.534c.012.018.035.035.047.035h.006Zm-3.012-3.843.919-3.4a.047.047 0 1 1 .093 0l.918 3.4c.012.03-.011.059-.04.059h-1.843c-.035 0-.059-.03-.047-.059Zm22.587 3.843h1.151c.03 0 .053-.034.047-.058L78.2 5.256c-.012-.024-.023-.035-.047-.035h-1.645c-.01 0-.02.004-.028.01a.054.054 0 0 0-.019.025l-2.372 8.72c-.005.03.018.059.047.059h1.145c.023 0 .04-.012.047-.03l.686-2.534c.011-.023.023-.03.046-.03h2.541c.017 0 .035.012.04.03l.693 2.535c0 .017.023.035.04.035v.005Zm-3.011-3.843.924-3.4a.049.049 0 0 1 .017-.023.049.049 0 0 1 .027-.008c.009 0 .018.003.026.008a.05.05 0 0 1 .017.022l.925 3.401c0 .03-.018.059-.047.059H76.41c-.029 0-.058-.03-.046-.059Zm-37.28 2.553v-2.698c0-.023.018-.046.041-.046h3.36c.024 0 .047-.024.047-.041V8.884a.053.053 0 0 0-.046-.047H39.13c-.023 0-.04-.023-.04-.046V6.488c0-.023.017-.046.04-.046h3.826a.05.05 0 0 0 .046-.047V5.314a.052.052 0 0 0-.046-.047H37.78a.052.052 0 0 0-.046.047V14c0 .023.023.046.046.046h5.332c.023 0 .046-.023.046-.046v-1.151a.052.052 0 0 0-.047-.046h-3.988c-.023-.007-.035-.024-.035-.053l-.005.006Zm60.384 1.215-4.36-4.5a.048.048 0 0 1-.01-.03c0-.01.003-.02.01-.028l3.924-4.07a.04.04 0 0 0 .022-.024.04.04 0 0 0-.001-.031.041.041 0 0 0-.056-.02h-1.604c-.018 0-.023.005-.03.017l-3.33 3.447a.046.046 0 0 1-.066-.006.044.044 0 0 1-.01-.023v-3.39a.05.05 0 0 0-.015-.03.05.05 0 0 0-.032-.016h-1.262a.052.052 0 0 0-.046.047v8.692a.05.05 0 0 0 .046.046h1.262a.05.05 0 0 0 .047-.046V10.18c0-.04.052-.058.075-.029l3.78 3.884a.06.06 0 0 0 .023.017h1.61c.03-.006.058-.058.023-.081Z"/><path fill="#E17726" stroke="#E17726" stroke-linecap="round" stroke-linejoin="round" stroke-width=".25" d="m19.163.581-7.64 5.652L12.948 2.9l6.215-2.32Z"/><path fill="#E27625" stroke="#E27625" stroke-linecap="round" stroke-linejoin="round" stroke-width=".25" d="M1.55.581 9.12 6.28 7.765 2.907 1.55.581Zm14.867 13.1-2.035 3.104 4.354 1.198 1.244-4.233-3.563-.07ZM.742 13.75l1.239 4.233 4.343-1.198L4.3 13.68l-3.558.07Z"/><path fill="#E27625" stroke="#E27625" stroke-linecap="round" stroke-linejoin="round" stroke-width=".25" d="m6.084 8.436-1.209 1.826 4.302.197-.14-4.633-2.953 2.616v-.006Zm8.535.006-3-2.675-.099 4.692 4.303-.197-1.204-1.82Zm-8.302 8.343 2.61-1.256-2.244-1.744-.366 3Zm5.465-1.262 2.593 1.262-.349-3.006-2.244 1.744Z"/><path fill="#D5BFB2" stroke="#D5BFB2" stroke-linecap="round" stroke-linejoin="round" stroke-width=".25" d="m14.379 16.785-2.594-1.256.21 1.686-.023.715 2.407-1.145Zm-8.059 0L8.74 17.93l-.018-.715.21-1.686-2.61 1.256Z"/><path fill="#233447" stroke="#233447" stroke-linecap="round" stroke-linejoin="round" stroke-width=".25" d="m8.776 12.663-2.151-.628 1.523-.698.634 1.326h-.006Zm3.146 0 .639-1.332 1.53.698-2.17.64v-.006Z"/><path fill="#CC6228" stroke="#CC6228" stroke-linecap="round" stroke-linejoin="round" stroke-width=".25" d="m6.32 16.785.378-3.105-2.401.07 2.023 3.035Zm7.692-3.105.366 3.105 2.035-3.035-2.401-.07Zm1.82-3.418-4.303.197.396 2.21.64-1.338 1.528.698 1.739-1.767Zm-9.204 1.773 1.524-.698.633 1.326.401-2.21-4.302-.191 1.744 1.773Z"/><path fill="#E27525" stroke="#E27525" stroke-linecap="round" stroke-linejoin="round" stroke-width=".25" d="m4.883 10.262 1.802 3.517-.058-1.744-1.744-1.773Zm9.21 1.773-.07 1.744 1.802-3.517-1.733 1.773Zm-4.908-1.576-.407 2.21.512 2.604.116-3.436-.22-1.378Zm2.337 0-.209 1.372.105 3.442.506-2.61-.402-2.21v.006Z"/><path fill="#F5841F" stroke="#F5841F" stroke-linecap="round" stroke-linejoin="round" stroke-width=".25" d="m11.927 12.663-.505 2.61.366.256 2.238-1.744.07-1.75-2.169.628Zm-5.296-.628.058 1.744 2.244 1.744.36-.25-.505-2.61-2.163-.628h.006Z"/><path fill="#C0AC9D" stroke="#C0AC9D" stroke-linecap="round" stroke-linejoin="round" stroke-width=".25" d="m11.977 17.93.018-.715-.198-.163H8.913l-.192.163.018.715-2.419-1.145.85.698 1.714 1.18h2.936l1.721-1.186.838-.692-2.407 1.145h.005Z"/><path fill="#161616" stroke="#161616" stroke-linecap="round" stroke-linejoin="round" stroke-width=".25" d="m11.783 15.523-.367-.25H9.29l-.36.256-.21 1.686.192-.163h2.883l.198.163-.21-1.686v-.006Z"/><path fill="#763E1A" stroke="#763E1A" stroke-linecap="round" stroke-linejoin="round" stroke-width=".25" d="m19.485 6.599.64-3.11L19.16.58l-7.384 5.466 2.843 2.389 4.011 1.169.884-1.03-.384-.278.61-.559-.464-.36.61-.465-.407-.314h.006ZM.578 3.483l.651 3.116-.418.308.622.465-.465.366.604.559-.383.279.883 1.029 4.012-1.163L8.927 6.04 1.543.58.578 3.483Z"/><path fill="#F5841F" stroke="#F5841F" stroke-linecap="round" stroke-linejoin="round" stroke-width=".25" d="m18.637 9.605-4.011-1.163 1.21 1.82-1.803 3.517 2.384-.029h3.563l-1.343-4.145ZM6.091 8.436 2.079 9.605.742 13.75h3.564l2.384.03-1.802-3.518 1.209-1.826H6.09Zm5.436 2.023.262-4.418L12.95 2.9H7.765l1.163 3.14.262 4.418.099 1.384v3.43h2.133l.012-3.43.093-1.384Z"/></svg>
